dist/img/icons/user-icon.svg

<svg width="200" height="200" viewBox="0 0 200 200" fill="none" xmlns="http://www.w3.org/2000/svg"><path d="M100 198.75c54.538 0 98.75-44.212 98.75-98.75S154.538 1.25 100 1.25 1.25 45.462 1.25 100s44.212 98.75 98.75 98.75z" fill="#fff"/><path fill-rule="evenodd" clip-rule="evenodd" d="M100 2.5C46.152 2.5 2.5 46.152 2.5 100s43.652 97.5 97.5 97.5 97.5-43.652 97.5-97.5S153.848 2.5 100 2.5zM0 100C0 44.772 44.772 0 100 0s100 44.772 100 100-44.772 100-100 100S0 155.228 0 100z" fill="#7E20C8"/><path d="M100.5 187c48.325 0 87.5-39.175 87.5-87.5S148.825 12 100.5 12 13 51.175 13 99.5 52.175 187 100.5 187z" fill="#DADAE4"/><path d="M122.635 133.801C135.425 141.137 150 153.191 150 183l-50 6.5-50-6.5c0-35.524 14.579-41.863 27.368-49.199-12.79-7.335-21.365-20.685-21.365-35.909C56.003 74.794 75.74 56 100.002 56c24.258 0 43.995 18.794 43.995 41.892 0 15.224-8.572 28.574-21.362 35.909z" fill="#fff"/><path d="M88.536 123.096h25.632c0-13.248 23.616-16.56 23.616-39.024 0-17.568-15.84-27.072-38.016-27.072C78.6 57 64.632 65.496 57 78.312l21.456 11.52c3.744-6.48 10.224-10.368 18-10.368 7.344 0 12.672 3.456 12.672 9.216 0 10.8-20.592 15.552-20.592 34.416zm12.816 38.016c9.648 0 16.416-6.768 16.416-15.12 0-8.496-6.768-14.832-16.416-14.832s-16.272 6.336-16.272 14.832c0 8.352 6.624 15.12 16.272 15.12z" fill="#252322" fill-opacity=".3" filter="url(#a)"/><path d="M88.536 119.096h25.632c0-13.248 23.616-16.56 23.616-39.024 0-17.568-15.84-27.072-38.016-27.072C78.6 53 64.632 61.496 57 74.312l21.456 11.52c3.744-6.48 10.224-10.368 18-10.368 7.344 0 12.672 3.456 12.672 9.216 0 10.8-20.592 15.552-20.592 34.416zm12.816 38.016c9.648 0 16.416-6.768 16.416-15.12 0-8.496-6.768-14.832-16.416-14.832s-16.272 6.336-16.272 14.832c0 8.352 6.624 15.12 16.272 15.12z" fill="#fff"/><defs><filter id="a" x="52" y="52" width="90.784" height="114.112" filterUnits="userSpaceOnUse" color-interpolation-filters="sRGB"><feFlood flood-opacity="0" result="BackgroundImageFix"/><feBlend in="SourceGraphic" in2="BackgroundImageFix" result="shape"/><feGaussianBlur stdDeviation="2.5" result="effect1_foregroundBlur"/></filter></defs></svg>

<svg width="200" height="200" viewBox="0 0 200 200" fill="none" xmlns="http://www.w3.org/2000/svg">
<path d="M100 198.75C154.538 198.75 198.75 154.538 198.75 100C198.75 45.4619 154.538 1.25 100 1.25C45.4619 1.25 1.25 45.4619 1.25 100C1.25 154.538 45.4619 198.75 100 198.75Z" fill="white"/>
<path fill-rule="evenodd" clip-rule="evenodd" d="M100 2.5C46.1522 2.5 2.5 46.1522 2.5 100C2.5 153.848 46.1522 197.5 100 197.5C153.848 197.5 197.5 153.848 197.5 100C197.5 46.1522 153.848 2.5 100 2.5ZM0 100C0 44.7715 44.7715 0 100 0C155.228 0 200 44.7715 200 100C200 155.228 155.228 200 100 200C44.7715 200 0 155.228 0 100Z" fill="#7E20C8"/>
<path d="M100.5 187C148.825 187 188 147.825 188 99.5C188 51.1751 148.825 12 100.5 12C52.1751 12 13 51.1751 13 99.5C13 147.825 52.1751 187 100.5 187Z" fill="#DADAE4"/>
<path d="M122.635 133.801C135.425 141.137 150 153.191 150 183L100 189.5L50 183C50 147.476 64.5786 141.137 77.3678 133.801C64.5786 126.466 56.0029 113.116 56.0029 97.892C56.0029 74.7939 75.7405 56 100.002 56C124.26 56 143.997 74.7939 143.997 97.892C143.997 113.116 135.425 126.466 122.635 133.801Z" fill="white"/>
<g filter="url(#filter0_f)">
<path d="M88.536 123.096H114.168C114.168 109.848 137.784 106.536 137.784 84.072C137.784 66.504 121.944 57 99.768 57C78.6 57 64.632 65.496 57 78.312L78.456 89.832C82.2 83.352 88.68 79.464 96.456 79.464C103.8 79.464 109.128 82.92 109.128 88.68C109.128 99.48 88.536 104.232 88.536 123.096ZM101.352 161.112C111 161.112 117.768 154.344 117.768 145.992C117.768 137.496 111 131.16 101.352 131.16C91.704 131.16 85.08 137.496 85.08 145.992C85.08 154.344 91.704 161.112 101.352 161.112Z" fill="#252322" fill-opacity="0.3"/>
</g>
<path d="M88.536 119.096H114.168C114.168 105.848 137.784 102.536 137.784 80.072C137.784 62.504 121.944 53 99.768 53C78.6 53 64.632 61.496 57 74.312L78.456 85.832C82.2 79.352 88.68 75.464 96.456 75.464C103.8 75.464 109.128 78.92 109.128 84.68C109.128 95.48 88.536 100.232 88.536 119.096ZM101.352 157.112C111 157.112 117.768 150.344 117.768 141.992C117.768 133.496 111 127.16 101.352 127.16C91.704 127.16 85.08 133.496 85.08 141.992C85.08 150.344 91.704 157.112 101.352 157.112Z" fill="white"/>
<defs>
<filter id="filter0_f" x="52" y="52" width="90.7839" height="114.112" filterUnits="userSpaceOnUse" color-interpolation-filters="sRGB">
<feFlood flood-opacity="0" result="BackgroundImageFix"/>
<feBlend mode="normal" in="SourceGraphic" in2="BackgroundImageFix" result="shape"/>
<feGaussianBlur stdDeviation="2.5" result="effect1_foregroundBlur"/>
</filter>
</defs>
</svg>
